X:303
T: DIE FRAU WOLLT WALLFAHREN
N: E0907
O: Europa, Mitteleuropa, Deutschland, Bayern
R: Ehestands - Lied
M: 3/8
L: 1/16
K: G
 | D2G2G2 | F2AFG2 |
B4c2 | d6 |
c2e2c2 | B2d2B2 |
A2cBcA | G2B2d2 |
c2e2c2 | B2d2B2 |
A2cBcA | G4z2

@@@ Tune index: 4616
